svg/white/payx.svg

<svg width="32" height="32" viewBox="0 0 32 32" version="1.1" xmlns="http://www.w3.org/2000/svg" xmlns:xlink="http://www.w3.org/1999/xlink"><title>svg/white/payx</title><desc>Created with Sketch.</desc><g id="white/payx" stroke="none" stroke-width="1" fill="none" fill-rule="evenodd"><path d="M16,32 C7.163444,32 0,24.836556 0,16 C0,7.163444 7.163444,0 16,0 C24.836556,0 32,7.163444 32,16 C32,24.836556 24.836556,32 16,32 Z M11.6875,10.0625 L11.71875,10.0625 C14.59375,10.125 17.46875,10 20.34375,10.125 C21.0625,10.125 21.90625,10.46875 22.0625,11.21875 C22.3125,12.96875 20.84375,14.5625 19.25,14.96875 C17.5,15.25 15.75,15.15625 14.03125,15.15625 C13.6145833,16.18125 13.1979167,17.2020833 12.78125,18.21875 C14.875,18.21875 16.96875,18.3125 19.03125,18 C21.9918146,17.3379093 24.3948247,15.1834864 25.375,12.3125 C25.875,11 26.09375,9.34375 25.09375,8.1875 C24.25,7.125 22.75,7.125 21.5,7.03125 L12.9375,7 L11.6875,10.0625 Z M8,10.90625 L8,10.9375 L6.625,14.375 L16.8125,14.375 L18.15625,10.90625 L8,10.90625 Z M9.625,15.15625 L9.65625,15.15625 L6,24.53125 L9.46875,24.53125 L13.15625,15.15625 L9.625,15.15625 Z" id="Combined-Shape" fill="#FFF" fill-rule="nonzero"/></g></svg>

<svg width="32" height="32" viewBox="0 0 32 32" xmlns="http://www.w3.org/2000/svg"><path d="M16 32C7.163 32 0 24.837 0 16S7.163 0 16 0s16 7.163 16 16-7.163 16-16 16zm-4.313-21.938h.032c2.875.063 5.75-.062 8.625.063.718 0 1.562.344 1.718 1.094.25 1.75-1.218 3.344-2.812 3.75-1.75.281-3.5.187-5.219.187a923.905 923.905 0 0 1-1.25 3.063c2.094 0 4.188.093 6.25-.219a8.712 8.712 0 0 0 6.344-5.688c.5-1.312.719-2.968-.281-4.124C24.25 7.125 22.75 7.125 21.5 7.03L12.937 7l-1.25 3.063zM8 10.906v.031l-1.375 3.438h10.188l1.343-3.469H8zm1.625 4.25h.031L6 24.531h3.469l3.687-9.375H9.625z" fill="#FFF"/></svg>
